src/menu.svg

<svg viewBox="0 0 16 16" fill="none" xmlns="http://www.w3.org/2000/svg"><path d="M14 4H2v1h12V4Zm0 7H2v1h12v-1Zm-3.6-3.5H2v1h8.4v-1Z" fill="#111111"/></svg>

<svg viewBox="0 0 16 16" fill="none" xmlns="http://www.w3.org/2000/svg"><path d="M14 4H2V5H14V4ZM14 11H2V12H14V11ZM10.4 7.5H2V8.5H10.4V7.5Z" fill="#111111"/></svg>
